X: 37976
T: Sparks
R: jig
M: 6/8
K: Amixolydian
EAA AFA|~B3 Bcd|efe ecA|~B3 BAF|
EAA AFA|~B3 Bcd|efe ecA|1 BcB A2F|2 BcB A2d||
|:e2a age|ABc d2d|e2a age|ABc ~d3|
eaa age|=cde dcG|BGG BAG|EDB, A,3:|

